X:2409
T:The Duke He Was a Bonnie Beau
P:Birk Hall
C:Jas. Lowe
R:Reel (8x32)
B:RSCDS 24-9
Z:Anselm Lingnau <anselm@strathspey.org>
M:C
L:1/8
K:C
a|"C"g2ec "G"BdGB|"C"c2ec "B"Bcda|"C"g2ec "G"Bddc|"G"BGAB "C"c2 ca|
  "C"g2ec "G"BdGB|"C"c2ec "B"Bcda|"C"g2ec "G"Bddc|"G"BGAB "C"c2 c||
G|"C"ECGF EGcB|"D7"AFdc "G"B/c/d BG|"C"ECGF EGcB|"D"AF"G"dG "C"c2 cG|
  "C"ECGF EGcB|"D7"AFdc "G"B/c/d BG|"F"AcBd "C"ce"F"dc|"G7"BGAB "C"c2c|]
